static/images/ui/pulse.svg

<svg height="20" viewBox="0 0 100 100" width="20" xmlns="http://www.w3.org/2000/svg"><path d="m50 12.06a37.94 37.94 0 1 0 37.94 37.94 38 38 0 0 0 -37.94-37.94zm0 6a32 32 0 0 1 31.79 28.94h-15.79a3 3 0 0 0 -2.47 1.29l-6.16 8.9-11.71-22.57a3 3 0 0 0 -5.19-.24l-8.11 12.62h-14.15a32 32 0 0 1 31.79-28.94zm0 63.88a32 32 0 0 1 -31.79-28.94h15.79a3 3 0 0 0 2.52-1.38l6.2-9.62 11.62 22.4a3 3 0 0 0 2.47 1.6h.19a3 3 0 0 0 2.47-1.29l8.1-11.71h14.22a32 32 0 0 1 -31.79 28.94z"/></svg>

<svg height='20px' width='20px'  fill="#000000" xmlns="http://www.w3.org/2000/svg" viewBox="0 0 100 100" x="0px" y="0px"><path d="M50,12.06A37.94,37.94,0,1,0,87.94,50,38,38,0,0,0,50,12.06Zm0,6A32,32,0,0,1,81.79,47H66a3,3,0,0,0-2.47,1.29l-6.16,8.9L45.66,34.62a3,3,0,0,0-5.19-.24L32.36,47H18.21A32,32,0,0,1,50,18.06Zm0,63.88A32,32,0,0,1,18.21,53H34a3,3,0,0,0,2.52-1.38L42.72,42l11.62,22.4A3,3,0,0,0,56.81,66H57a3,3,0,0,0,2.47-1.29L67.57,53H81.79A32,32,0,0,1,50,81.94Z"></path></svg>
